packages/components/icons/assets/WorkOutline.svg

<svg viewBox="0 0 24 24" xmlns="http://www.w3.org/2000/svg" data-title="WorkOutline" fill="currentColor" stroke="none">
  <path d="M16.8622 15.2063H7.13776C6.60292 15.2063 6.16532 15.6441 6.16532 16.1792C6.16532 16.7142 6.60292 17.152 7.13776 17.152H16.8622C17.3971 17.152 17.8347 16.7142 17.8347 16.1792C17.8347 15.6441 17.3971 15.2063 16.8622 15.2063Z"/>
  <path d="M19.6418 6.167H17.1378V4.35914C17.1378 3.7349 16.8865 3.13498 16.4489 2.6891C16.0032 2.24321 15.4036 2 14.7796 2H9.22042C8.59643 2 7.99676 2.25132 7.55105 2.6891C7.10535 3.12687 6.86224 3.7349 6.86224 4.35914V6.167H4.35818C3.05348 6.167 2 7.22092 2 8.52614V19.6409C2 20.9461 3.05348 22 4.35818 22H19.6418C20.9465 22 22 20.9461 22 19.6409V8.52614C22 7.22092 20.9465 6.167 19.6418 6.167ZM20.0551 8.52614V19.6409C20.0551 19.8679 19.8687 20.0543 19.6418 20.0543H4.35818C4.13128 20.0543 3.94489 19.8679 3.94489 19.6409V8.52614C3.94489 8.29915 4.13128 8.11269 4.35818 8.11269H19.6418C19.8687 8.11269 20.0551 8.29915 20.0551 8.52614ZM8.80713 4.35914C8.80713 4.24564 8.84765 4.14025 8.92869 4.06729C9.00972 3.99432 9.11507 3.94568 9.22042 3.94568H14.7796C14.893 3.94568 14.9984 3.98622 15.0713 4.06729C15.1523 4.14836 15.1929 4.25375 15.1929 4.35914V6.167H8.79903V4.35914H8.80713Z"/>
  <path d="M16.8622 11.0312H7.13776C6.60292 11.0312 6.16532 11.469 6.16532 12.0041C6.16532 12.5391 6.60292 12.9769 7.13776 12.9769H16.8622C17.3971 12.9769 17.8347 12.5391 17.8347 12.0041C17.8347 11.469 17.3971 11.0312 16.8622 11.0312Z"/>
</svg>

<svg viewBox="0 0 24 24" xmlns="http://www.w3.org/2000/svg" data-title="WorkOutline" fill="currentColor" stroke="none">
  <path d="m16.86,15.21H7.14c-.53,0-.97.44-.97.97s.44.97.97.97h9.72c.53,0,.97-.44.97-.97s-.44-.97-.97-.97Z"/>
  <path d="m19.64,6.17h-2.5v-1.81c0-.62-.25-1.22-.69-1.67-.45-.45-1.05-.69-1.67-.69h-5.56c-.62,0-1.22.25-1.67.69-.45.44-.69,1.05-.69,1.67v1.81h-2.5c-1.3,0-2.36,1.05-2.36,2.36v11.11c0,1.31,1.05,2.36,2.36,2.36h15.28c1.3,0,2.36-1.05,2.36-2.36v-11.11c0-1.31-1.05-2.36-2.36-2.36Zm.41,2.36v11.11c0,.23-.19.41-.41.41H4.36c-.23,0-.41-.19-.41-.41v-11.11c0-.23.19-.41.41-.41h15.28c.23,0,.41.19.41.41Zm-11.25-4.17c0-.11.04-.22.12-.29.08-.07.19-.12.29-.12h5.56c.11,0,.22.04.29.12.08.08.12.19.12.29v1.81h-6.39v-1.81h0Z"/>
  <path d="m16.86,11.03H7.14c-.53,0-.97.44-.97.97s.44.97.97.97h9.72c.53,0,.97-.44.97-.97s-.44-.97-.97-.97Z"/>
</svg>
